ui/assets/img/icons/closed-eye.svg

<svg xmlns="http://www.w3.org/2000/svg" viewBox="0 0 32 32" fill="none" stroke="black" stroke-linejoin="round">
    <path d="M29.5001 16C29.5001 18.2 25.1001 25 16.0001 25M16.0001 25C6.9001 25 2.5001 18.2 2.5001 16M16.0001 25V30M22.4643 23.8143L24.4643 28.8143M9.53586 23.8143L7.53586 28.8143M3.75173 19.3085L0.393555 23.5915M28.0243 19.3085L31.5 23.5915" />
</svg>

<svg xmlns="http://www.w3.org/2000/svg" viewBox="0 0 32 32" stroke="#000" fill="none" stroke-linejoin="round">
  <path d="M29.5 16c0 2.2-4.4 9-13.5 9m0 0c-9.1 0-13.5-6.8-13.5-9M16 25v5m6.464-6.186 2 5m-14.928-5-2 5m-3.784-9.506L.394 23.592m27.213-4.284 3.358 4.284"/>
</svg>
